contributed-vectors/gojek.svg

<svg xmlns="http://www.w3.org/2000/svg" xml:space="preserve" style="fill-rule:evenodd;clip-rule:evenodd;stroke-linecap:round;stroke-linejoin:round;stroke-miterlimit:1.5" viewBox="0 0 192 192"><path d="M164.5 21.5c0-5.519-4.481-10-10-10h-133c-5.519 0-10 4.481-10 10v133c0 5.519 4.481 10 10 10h133c5.519 0 10-4.481 10-10v-133Z" style="fill:#fff" transform="translate(8 8)"/><circle cx="96" cy="96" r="21.488" style="fill:#98dc9a" transform="translate(-2.605 -2.605) scale(1.02713)"/><path d="M104.396 115.78A21.487 21.487 0 0 0 117.488 96c0-11.86-9.628-21.488-21.488-21.488S74.512 84.14 74.512 96a21.49 21.49 0 0 0 0 0c0-11.86 9.628-21.488 21.488-21.488S117.488 84.14 117.488 96a21.487 21.487 0 0 1-13.092 19.78Z" style="fill:none;stroke:#98dc9a;stroke-width:9.8px" transform="translate(-119.11 -119.11) scale(2.24073)"/></svg>

<?xml version="1.0" encoding="UTF-8" standalone="no"?>
<!DOCTYPE svg PUBLIC "-//W3C//DTD SVG 1.1//EN" "http://www.w3.org/Graphics/SVG/1.1/DTD/svg11.dtd">
<svg width="100%" height="100%" viewBox="0 0 192 192" version="1.1" xmlns="http://www.w3.org/2000/svg" xmlns:xlink="http://www.w3.org/1999/xlink" xml:space="preserve" xmlns:serif="http://www.serif.com/" style="fill-rule:evenodd;clip-rule:evenodd;stroke-linecap:round;stroke-linejoin:round;stroke-miterlimit:1.5;">
    <g id="Layer2">
        <g transform="matrix(1,0,0,1,8,8)">
            <path d="M164.5,21.5C164.5,15.981 160.019,11.5 154.5,11.5L21.5,11.5C15.981,11.5 11.5,15.981 11.5,21.5L11.5,154.5C11.5,160.019 15.981,164.5 21.5,164.5L154.5,164.5C160.019,164.5 164.5,160.019 164.5,154.5L164.5,21.5Z" style="fill:white;"/>
        </g>
        <g>
            <g transform="matrix(1.02713,0,0,1.02713,-2.60483,-2.60483)">
                <circle cx="96" cy="96" r="21.488" style="fill:rgb(152,220,154);"/>
            </g>
            <g transform="matrix(2.24073,0,0,2.24073,-119.11,-119.11)">
                <path d="M104.396,115.78C112.334,112.411 117.488,104.623 117.488,96C117.488,84.14 107.86,74.512 96,74.512C84.14,74.512 74.512,84.14 74.512,96C74.512,104.76 79.829,112.642 87.95,115.924C79.829,112.642 74.512,104.76 74.512,96C74.512,84.14 84.14,74.512 96,74.512C107.86,74.512 117.488,84.14 117.488,96C117.488,104.623 112.334,112.411 104.396,115.78Z" style="fill:none;stroke:rgb(152,220,154);stroke-width:9.8px;"/>
            </g>
        </g>
    </g>
</svg>
